X:668
T: Songlang danghongjun
N: C2194
O: China,Hunan Huarong
S: I, 530]
R: Xiaodiao]
M: 4/4
L: 1/16
K: A
a3be2c2b6c2 | a4b2f2e2c2e4 |
f2efa3bc2cbabec | b3cbaf2e3ce4 |
e3cb4abafe4 | a3be2c2b2baf4 |
a3be2c2abc2b4 | c2cbabecb6c2 |
a2afefa2f2e2c2Bc | e3afecBa8

@@@ Tune index: 7223
